X: 1704
T: Me Smokey Smokey
B: australian traditional tunes wiki
M:4/4
L:1/8
R: March
Q: 1/4=100
K:D
V:1 
"D"D2FFE2F2|DFAAB2A2|d2AAB2AG|F2DF"A7"E4|
"D"D2FFE2F2|DFAAB2A2|d2AAB2AG|"A7"F2EF"D"D4:|
|:"G"G2BBA2B2|GBdd e2d2|g2dde2dc|B2GB"D7"A4|
"G"G2BBA2B2|GBdde2d2|g2dde2dc|"D7"B2AB"G"G4:|
|:"A"A2ccB2c2|Aceef2e2|a2eef2ed|c2Ac"E7"B4|
"A"A2ccB2c2|Aceef2e2|a2eef2ed|"E7"c2Bc "A"A4:|
% abcbook-tune_id 6342d53a6da26cd7ca33eb3b


% abcbook-boost 0
% abcbook-tablature 
% abcbook-transpose 
% abcbook-lastupdated 1665324378963
% abcbook-soundfonts 
% abcbook-repeats 1
% NFF Book 2020

